X:28
T:Pellikvalsen
R:vals
H:efter Lejsme Per Larsson
A:Malung, Dalarna
Z:id:hn-vals-28
M:3/4
K:A
E2 | E2 AA A2 | Ac ea af | fd dd dd | d2 fa fd | dc cc c2 |
Ac ea ed | B2 df ec | cA ce dB | EG Bd BG | A4 :|
|: E2 | E2 cB Ac | cB dc BA | G2 BE GB | A2 fe cA |
E2 cB Ac | cB dc BA | G2 BE GB |1A4 :|2 A3 Bcd ||
|: e2 ae ce | d2 fe dB | G2 BE GB | EG AB cd |
ce ae ce | d2 fe dB | G2 BE GB |1 A3 Bcd :|2 A4 ||
<end>
<start>
